X:5536
T:Rheinlnder aus dem Traisental
O:england
S:collection Elisabeth und Christoph Huspeka
N:please mail errors to: simon.wascher@chello.at
M:2/4
L:1/16
K:G
DD|G2G2 B2B2|dgfe d2dd|g2B2 d2G2|BAA^G A2AA|
=G2G2B2B2|dgfe d2dd|g2B2 dcBA|G2GGG2:|
|:G2|A2D2 A2D2|GABcd4|A2D2 A2D2|G2GB A2DD|
G2G2 B2B2|dgfe d2dd|bgBe dcBA|G2GGG2:|
|:DD|G2G2 B2B2|AcBA G2GB|d2B2 G2B2|AGFG A2DD|
G2G2 B2B2|AcBA G2GB|d2B2 dcBA|G2BAG2:|
|:G2|A2c2 A2F2|GABcd4|A2c2 A2F2|G2dB A2DD|
G2G2 B2B2|AcBA G2Bd|dcBA cAGF|G2B2G2:|
